src/images/icon-bottom-logo.svg

<svg width="55" height="37" viewBox="0 0 55 37" fill="none" xmlns="http://www.w3.org/2000/svg">
<path d="M38.4218 19.5773H36.7631L35.9352 23.9257H37.7531C38.42 23.9725 39.0786 23.7392 39.6028 23.2708C39.8295 23.0413 40.0076 22.7569 40.1238 22.439C40.2401 22.1209 40.2916 21.7774 40.2745 21.4339C40.2706 20.1962 39.653 19.5773 38.4218 19.5773Z" fill="#FFCC00"/>
<path d="M39.5014 13.0581H37.9672L37.2725 16.768H38.7894C39.6027 16.768 40.2136 16.5813 40.6217 16.2145C40.8271 16.0218 40.9894 15.7769 41.0956 15.4998C41.2016 15.2228 41.2486 14.9213 41.2326 14.62C41.2229 13.5787 40.6459 13.0581 39.5014 13.0581Z" fill="#FFCC00"/>
<path d="M4.06244 0L0 37H50.8068L55 0H4.06244ZM22.7179 26.6334L22.6802 26.8496H19.1429L18.92 18.6179L18.8997 17.0266C18.8997 16.3717 18.8997 15.7562 18.9402 15.2224H18.8997C18.5727 16.3853 18.1861 17.5256 17.7419 18.6375L14.4737 26.8496H11.055L10.6005 10.1504H13.4953L13.5561 19.2629C13.5561 19.6558 13.5416 20.3173 13.5156 21.2275C13.4895 22.1378 13.4548 22.8091 13.4142 23.215H13.475C13.6236 22.7261 13.8494 22.0385 14.1524 21.1522C14.4564 20.2649 14.656 19.7115 14.7574 19.4921L18.4858 10.1504H21.2097L21.4211 20.1241C21.4211 21.2374 21.3901 22.2732 21.3284 23.2315H21.3892C21.6786 22.2491 22.1196 20.9209 22.7121 19.2466L26.0527 10.1504H28.4465H28.4292H29.1615L27.8677 13.4706C27.9979 13.3822 28.1224 13.3069 28.2381 13.2447C28.6619 13.0012 29.1292 12.8702 29.6045 12.8616C29.8119 12.8409 30.0209 12.8724 30.2162 12.9539C30.4116 13.0356 30.5886 13.165 30.7345 13.3331C30.8803 13.5013 30.9914 13.7038 31.0598 13.9263C31.1282 14.1488 31.1521 14.3857 31.13 14.6199C31.0949 15.3682 30.853 16.0853 30.4382 16.6697C29.6921 17.7337 28.851 18.708 27.9285 19.5773L23.8931 23.6342L22.7179 26.6334ZM43.56 16.6926C42.9367 17.4764 42.0969 17.9981 41.1776 18.1726V18.2414C41.8039 18.4049 42.3678 18.7903 42.7871 19.3415C43.2028 19.9234 43.4168 20.6569 43.3892 21.4044C43.3892 23.1507 42.874 24.4942 41.8434 25.435C40.8129 26.3759 39.3897 26.8473 37.5737 26.8496H32.3052L32.8611 23.8797H27.2105V23.7651L29.9258 21.2308C30.8864 20.3797 31.7865 19.4448 32.6179 18.4345C33.123 17.7928 33.5397 17.0687 33.8539 16.2866C34.1308 15.5633 34.2718 14.7827 34.2679 13.9945C34.2852 13.4402 34.1936 12.8885 34 12.379C33.8062 11.8694 33.5151 11.4148 33.1476 11.0476C32.7229 10.6328 32.2213 10.3308 31.68 10.1635H39.736C41.2799 10.1635 42.4445 10.4735 43.23 11.0934C44.0154 11.7134 44.4091 12.64 44.4111 13.8733C44.4422 14.9013 44.1395 15.9065 43.56 16.6992V16.6926Z" fill="#FFCC00"/>
</svg>

<svg xmlns="http://www.w3.org/2000/svg" width="55" height="37" fill="none"><path fill="#fc0" d="M38.42 19.58h-1.66l-.82 4.35h1.8c.68.04 1.34-.2 1.86-.66.23-.23.4-.5.52-.83.12-.32.17-.66.15-1 0-1.24-.62-1.86-1.85-1.86zM39.5 13.06h-1.53l-.7 3.7h1.52c.8 0 1.4-.18 1.82-.55.2-.18.37-.42.48-.7.1-.28.15-.58.13-.88 0-1.04-.58-1.56-1.73-1.56zM4.06 0L0 37h50.8L55 0H4.06zm18.66 26.63l-.04.22h-3.54l-.22-8.23-.02-1.6c0-.65 0-1.26.04-1.8h-.04c-.33 1.17-.7 2.3-1.16 3.42l-3.27 8.2h-3.42l-.45-16.7h2.9l.06 9.12c0 .4-.02 1.06-.04 1.97-.03.9-.07 1.58-.1 1.98h.05c.15-.47.38-1.16.68-2.05.3-.9.5-1.44.6-1.66l3.74-9.35h2.7l.22 9.97c0 1.12-.03 2.15-.1 3.1h.07c.28-.97.72-2.3 1.3-3.97l3.35-9.1h2.4-.02.73l-1.3 3.32c.14-.1.26-.16.38-.23.42-.24.9-.37 1.36-.38.2-.02.42 0 .62.1.2.08.37.2.5.37.16.17.27.37.34.6.07.22.1.46.07.7-.04.74-.28 1.46-.7 2.04-.74 1.06-1.58 2.04-2.5 2.9l-4.04 4.06-1.18 3zm20.84-9.94c-.62.78-1.46 1.3-2.38 1.47v.07c.62.16 1.2.55 1.6 1.1.42.58.64 1.32.6 2.06 0 1.75-.5 3.1-1.54 4.04-1.03.94-2.45 1.4-4.27 1.4H32.3l.56-2.96H27.2v-.1l2.73-2.55c.96-.85 1.86-1.8 2.7-2.8.5-.64.9-1.36 1.22-2.14.28-.74.42-1.52.42-2.3.02-.56-.08-1.1-.27-1.62-.2-.5-.48-.97-.85-1.33-.43-.42-.93-.72-1.47-.9h8.06c1.54 0 2.7.32 3.5.94.78.6 1.17 1.54 1.17 2.77.04 1.03-.26 2.04-.84 2.83z"/></svg>
